epam-assets/icon-sources/18/internal-logo/pulse.svg

<svg width="18" height="18" viewBox="0 0 18 18" fill="none" xmlns="http://www.w3.org/2000/svg">
<g id="18/internal-logo/pulse">
<path id="icon" fill-rule="evenodd" clip-rule="evenodd" d="M9 1.5C4.8579 1.5 1.5 4.8579 1.5 9C1.5 13.1422 4.8579 16.5 9 16.5C13.1422 16.5 16.5 13.1422 16.5 9C16.5 4.8579 13.1422 1.5 9 1.5ZM7.23529 13.4118C7.47794 13.4118 7.67647 13.2132 7.67647 12.9706V5.02941C7.67647 4.78677 7.47794 4.58824 7.23529 4.58824C6.99265 4.58824 6.79412 4.78677 6.79412 5.02941V12.9706C6.79412 13.2132 6.99265 13.4118 7.23529 13.4118ZM10.7647 12.5294C11.0074 12.5294 11.2059 12.3309 11.2059 12.0882V5.91177C11.2059 5.66912 11.0074 5.47059 10.7647 5.47059C10.5221 5.47059 10.3235 5.66912 10.3235 5.91177V12.0882C10.3235 12.3309 10.5221 12.5294 10.7647 12.5294ZM12.9706 10.7647C12.9706 11.0074 12.7721 11.2059 12.5294 11.2059C12.2868 11.2059 12.0882 11.0074 12.0882 10.7647V7.2353C12.0882 6.99265 12.2868 6.79412 12.5294 6.79412C12.7721 6.79412 12.9706 6.99265 12.9706 7.2353V10.7647ZM14.2941 9.88235C14.0515 9.88235 13.8529 9.68382 13.8529 9.44118V8.55882C13.8529 8.31618 14.0515 8.11765 14.2941 8.11765C14.5368 8.11765 14.7353 8.31618 14.7353 8.55882V9.44118C14.7353 9.68382 14.5368 9.88235 14.2941 9.88235ZM9.44118 11.2059C9.44118 11.4485 9.24265 11.6471 9 11.6471C8.75735 11.6471 8.55882 11.4485 8.55882 11.2059V6.79412C8.55882 6.55147 8.75735 6.35294 9 6.35294C9.24265 6.35294 9.44118 6.55147 9.44118 6.79412V11.2059ZM5.91177 10.7647C5.91177 11.0074 5.71324 11.2059 5.47059 11.2059C5.22794 11.2059 5.02941 11.0074 5.02941 10.7647V7.2353C5.02941 6.99265 5.22794 6.79412 5.47059 6.79412C5.71324 6.79412 5.91177 6.99265 5.91177 7.2353V10.7647ZM3.70588 9.88235C3.94853 9.88235 4.14706 9.68382 4.14706 9.44118V8.55882C4.14706 8.31618 3.94853 8.11765 3.70588 8.11765C3.46324 8.11765 3.26471 8.31618 3.26471 8.55882V9.44118C3.26471 9.68382 3.46324 9.88235 3.70588 9.88235Z" fill="#6C6F80"/>
</g>
</svg>

<svg xmlns="http://www.w3.org/2000/svg" width="18" height="18" fill="none" viewBox="0 0 18 18">
  <path fill="#6C6F80" fill-rule="evenodd" d="M9 1.5a7.5 7.5 0 1 0 0 15 7.5 7.5 0 0 0 0-15ZM7.235 13.412a.443.443 0 0 0 .441-.441V5.029a.442.442 0 0 0-.44-.44.442.442 0 0 0-.442.44v7.942c0 .242.199.44.441.44Zm3.53-.883a.442.442 0 0 0 .44-.44V5.911a.442.442 0 0 0-.44-.441.443.443 0 0 0-.442.44v6.177c0 .243.2.441.442.441Zm2.206-1.764a.442.442 0 0 1-.442.44.443.443 0 0 1-.44-.44v-3.53a.441.441 0 0 1 .882 0v3.53Zm1.323-.883a.443.443 0 0 1-.441-.44v-.883a.442.442 0 0 1 .882-.001v.883a.442.442 0 0 1-.44.441Zm-4.853 1.324a.443.443 0 0 1-.441.441.443.443 0 0 1-.441-.441V6.794a.442.442 0 0 1 .882 0v4.412Zm-3.53-.441a.442.442 0 0 1-.44.44.442.442 0 0 1-.442-.44v-3.53a.442.442 0 0 1 .882 0v3.53Zm-2.205-.883a.442.442 0 0 0 .441-.44v-.883a.442.442 0 0 0-.441-.441.442.442 0 0 0-.441.44v.883c0 .243.198.441.44.441Z" clip-rule="evenodd"/>
</svg>
